dist/img/icons/twitter-orange.svg

<svg width="24" height="20" viewBox="0 0 24 20" fill="none" xmlns="http://www.w3.org/2000/svg">
<path d="M23.643 2.93561C22.808 3.30561 21.911 3.55561 20.968 3.66861C21.941 3.0864 22.669 2.17008 23.016 1.09061C22.1019 1.6336 21.1014 2.01581 20.058 2.22061C19.3564 1.47148 18.4271 0.974938 17.4143 0.808086C16.4016 0.641234 15.3621 0.813404 14.4572 1.29786C13.5524 1.78233 12.8328 2.55197 12.4102 3.48732C11.9875 4.42266 11.8855 5.47136 12.12 6.47061C10.2677 6.37761 8.45564 5.89616 6.80144 5.05752C5.14723 4.21887 3.68785 3.04177 2.51801 1.60261C2.11801 2.29261 1.88801 3.09261 1.88801 3.94461C1.88757 4.71161 2.07644 5.46685 2.43789 6.14334C2.79934 6.81983 3.32217 7.39665 3.96001 7.82261C3.22029 7.79907 2.49688 7.5992 1.85001 7.23961V7.29961C1.84994 8.37535 2.22204 9.41799 2.90319 10.2506C3.58434 11.0832 4.53258 11.6545 5.58701 11.8676C4.9008 12.0533 4.18135 12.0807 3.48301 11.9476C3.78051 12.8732 4.36001 13.6826 5.14038 14.2625C5.92075 14.8424 6.86293 15.1638 7.83501 15.1816C6.18484 16.477 4.1469 17.1797 2.04901 17.1766C1.67739 17.1767 1.30609 17.155 0.937012 17.1116C3.06649 18.4808 5.54535 19.2074 8.07701 19.2046C16.647 19.2046 21.332 12.1066 21.332 5.95061C21.332 5.75061 21.327 5.54861 21.318 5.34861C22.2293 4.68959 23.0159 3.87351 23.641 2.93861L23.643 2.93561Z" fill="#FF5500"/>
</svg>

<svg width="24" height="20" fill="none" xmlns="http://www.w3.org/2000/svg"><path d="M23.643 2.936c-.835.37-1.732.62-2.675.733a4.67 4.67 0 002.048-2.578 9.299 9.299 0 01-2.958 1.13 4.66 4.66 0 00-7.938 4.25 13.229 13.229 0 01-9.602-4.868 4.66 4.66 0 001.442 6.22 4.647 4.647 0 01-2.11-.583v.06a4.66 4.66 0 003.737 4.568 4.692 4.692 0 01-2.104.08 4.661 4.661 0 004.352 3.234 9.348 9.348 0 01-5.786 1.995 9.5 9.5 0 01-1.112-.065 13.175 13.175 0 007.14 2.093c8.57 0 13.255-7.098 13.255-13.254 0-.2-.005-.402-.014-.602a9.47 9.47 0 002.323-2.41l.002-.003z" fill="#F50"/></svg>
